X:126
M:4/4
L:1/4
K:C
C | D C F E | D2 C E | G c B ^G | A3 A | G E E D | C2 D E | E E D C | D3 D | F E A B | c2 d G | e3/2 e/ d c | B3 A | G E E D | C2 D !sintro!E | E E D3/2 C/ | C3 !eintro!|]
